X:1695
T:Boeing 747 - scottish/schottisch/schottische
C:Ivan Karvaix
Z:abc transcription Simon Wascher
N:please mail errors to: simon.wascher@chello.at
M:2/4
L:1/16
K:Gm
GABG g3a|bagf d3=e|f=edc dBAB|dBABA4|
GABG g3a|bagf d3=e|f=edc dBAB|dBABG4:|
K:G
|:gfefd4|gfefB4|gf=fe _edc_B|A_BcAd4|
gfefd4|gfefB4|gf=fe _edc_B|A_BcAG4:|


